!!!OTL: WILL RUHEN UNTER DEN BAEUMEN HIER
!!!ARE: Europa, Mitteleuropa, Deutschland
!!!SCT: B0189
!!!YEM: Copyright 1995, estate of Helmut Schaffrath.
**kern
*ICvox
*Ivox
*M3/8
*k[b-]
*F:
{8c
=1
4f
8f
=2
8f
8e
8f
=3
8g
8a
8g
=4
8f
8r}
{8a
=5
8a
8f
8cc
=6
8cc
8a
8ff
=7
4.ff
=8
8cc
8r}
{8cc
=9
8.dd
16cc#
8dd
=10
8ff
8ee
8dd
=11
4cc
8a
=12
4f}
{8a
=13
8g
8a
8bn
=14
8cc
8ee
8ee
=15
8gg
8ff
8dd
=16
4cc}
{8cc
=17
8cc
8dd
8ee
=18
8ff
8cc
8a
=19
4.cc
=20
8a
8r}
==
!!!AGN: Natur - Lied
!!!ONB: ESAC (Essen Associative Code) Database: BOEHME
!!!AMT: simple triple
!!!AIN: vox
!!!EED: Helmut Schaffrath
!!!EEV: 1.0
*-
